X:1
T: Hey to Cupar
C:
R:Jig
Q:180
K:D
M:6/8
L:1/16
|:A,2|D3ED2 F4G2|A4B2 A2F2D2|G4e2 F4d2|E2F2D2 C3B,A,2|
D3ED2 F4G2|A4B2 A2F2D2|F2d2F2 E2d2c2|d6D4A2|
d3ed2 f4g2|a4g2 f2e2d2|B2c2B2 c4d2|e2f2d2 c2B2A2|
d2e2d2 f4g2|a4g2 f2e2d2|1Bcd2B2 cde2c2|d6D4:|2B2g2f2 e2d2c2|d6D4||
